kturtle-script-v1.0
@(reset)
@(sh)
@(go) 10@(,)10
$t=1

$q=0
$i=1
$n=@(ask)"n"
$k=@(ask)"k"


@(for) $i=1 @(to) $n{

$x=@(round)(@(random) -50@(,)50) 
@(print) $x
@(gox) @(getx)+20
$t=@(sqrt)($x*$x)
@(if)($t<$k){
$q=$q+$x*$x*$x
}



@(if) (@(getx)>387){
@(gox) 10
@(goy) @(gety)+10
}
}
@(center)
@(print) $q

